bps(130/120)

d1 $ stack [
every 3 (rev) $ every 2 (0.25 <~) $ every 5 (0.5 <~) $ every 7 (slow 2) $ every 4 (density 2) $ every 3 (# speed "0.75 1.25") $ sound "[ab:5:(3,8), ab:8*2]",
every 2 (0.25 <~) $ every 3 (density 1.5) $ every 5 (slow 1.5) $ sound "click:3(9,12)" # speed "0.5 1.0 1.5" # gain "[0.8 1.0]*8",
sound "bleep:1/3" # speed "0.5",
sound "bass3/2" # speed "0.75" # gain "0.8" # cut "1",
sound "pluck:2(10,32)" # slow 4 (speed "-4 -8") # gain (scale 0.2 0.6 $ slow 4 tri1)
]

hush
