cps (70/120)

d1
$ stack [
  every 4 (stut 8 0.25 0.25)
  $ every 6 (density 1.5)
  $ iter 8
  $ stack [
    brak $ degradeBy 0.3 $ sound "[odx*12, sf*8, 808*2]" # speed (scale (-2.0) 2 $ rand) # gain "0 1 1 0 1 1 0 1",
    sound "[[short:1, odx, world](3,8), ~ world:2!]" # speed "0.8" # shape "0.5",
    stut 4 0.5 0.25 $ sound "hh(3,8,2)" # pan sine1
  ],
  slow 1.5 $ sound "wobble" # gain "1.3",
  spin 4 $ striate 16 $ slow 8 $ sound "rave:4" # gain "0.8" # up "-3"
]

hush
