cps(130/120)

d1 $ stack [
every 2 (0.25 <~ ) $ every 4 (slow 1.5) $ sound (samples "amencutup*8" (every 2 (density 1.2) $ density 1.33 $ run 32)) # speed "0.75 0.5 0.8 -1 1 0.25" # cut "1" # gain "0.9",
sound "909(3,8)" # speed "0.8",
sound "hh27(6,8)" # speed "1.5 1.0" # density 1.25 (pan "0.25 0.75"),
sound "~ glitch:2/4 ~ glasstap:2/2" # speed "0.8 2.0" # gain "1.0 1.4",
sound "bass1:4/4" # cutoff "100" # speed "1.0"
]

hush
